X:4061
L:1/8
M:4/4
K:C
[M:6/8][K:G] Bua e B x .dcA G G2 | ABA G2 z | dcA G G2 | ADE FGA | dcA G G2 | ABA g g2 | fzd edd | 
 fed cAd || cAF G G2 | ABA G2 z | dcA G G2 | ADE FGA | dcA G G2 | ABA gzg | fdd edd | fed cAF |: 
 GBd g g2 | gaf g2 z | dgg dgg | azg fga | bgb afa | gfe fze | dcA dze |1 fed cAF :|2 fed cAd | 
 cAF G3 ||

